X: 1
T: Masbo Polketten No. 1
C: Trad.
R: 1/4=112
S: http://www.nyckelharpa.org/archive/written-music/american-allspel-list/ 2022/9/25
Z: 2022 John Chambers <jc:trillian.mit.edu>
M: 2/4
L: 1/16
Q: 1/4=112
K: C
|:\
[G2G,2]c2 [e2C2]c2 | [c2C2]Bc [d2D2][G2G,2] | B2d2 f2B2 | (dc)Bc e2c2 |
[G2G,2]c2 [e2C2]c2 | [c2C2]Bc [d2D2][G2G,2] | B2d2 f3B | d2c2 [c4C4] :|
|:\
[f2F2][f2F2] [a3F3][fF] | [f2F2][e2E2] [g3E3][eE] | [e2E2][d2D2] (fd)Bd | d2c2 (ec)eg |
g2[f2F2] [a3F3][Ff] | [f2F2][e2E2] [g3E3][eE] | [e2E2][d2D2] (fd)Bd | d2c2 [c4C4] :|
